src/icons/svg/VisSingleValue.svg

<svg width="24" height="24" viewBox="0 0 24 24" fill="none" xmlns="http://www.w3.org/2000/svg">
<path d="M6.80801 13.178C6.80801 9.999 7.42601 7.622 8.66101 6.047C9.89601 4.472 11.724 3.685 14.143 3.685C14.976 3.685 15.633 3.755 16.112 3.895V5.477C15.544 5.293 14.895 5.2 14.165 5.2C12.431 5.2 11.107 5.741 10.193 6.821C9.27901 7.901 8.77701 9.6 8.68801 11.916H8.82101C9.63201 10.647 10.916 10.013 12.671 10.013C14.124 10.013 15.269 10.452 16.106 11.33C16.943 12.208 17.362 13.399 17.362 14.904C17.362 16.586 16.903 17.908 15.985 18.871C15.067 19.834 13.826 20.315 12.262 20.315C10.587 20.315 9.26001 19.686 8.27901 18.428C7.29801 17.17 6.80701 15.42 6.80701 13.178H6.80801ZM12.241 18.755C13.288 18.755 14.102 18.425 14.681 17.765C15.26 17.105 15.549 16.152 15.549 14.905C15.549 13.836 15.28 12.995 14.741 12.382C14.202 11.769 13.399 11.464 12.329 11.464C11.665 11.464 11.057 11.601 10.503 11.874C9.94901 12.147 9.50901 12.523 9.18101 13.003C8.85301 13.482 8.68901 13.98 8.68901 14.497C8.68901 15.257 8.83701 15.965 9.13101 16.621C9.42501 17.277 9.84501 17.798 10.387 18.181C10.929 18.565 11.547 18.756 12.24 18.756L12.241 18.755Z" fill="#1C2125"/>
<path d="M23.958 23.872H0.213013V0.126999H23.958V23.872ZM0.979013 23.106H23.192V0.892999H0.979013V23.106V23.106Z" fill="#1C2125"/>
</svg>

<!-- Generated by IcoMoon.io -->
<svg version="1.1" xmlns="http://www.w3.org/2000/svg" width="24" height="24" viewBox="0 0 24 24">
<title>vis-single-value</title>
<path fill="#444" d="M6.808 13.178c0-3.179 0.618-5.556 1.853-7.131s3.063-2.362 5.482-2.362c0.833 0 1.49 0.070 1.969 0.21v1.582c-0.568-0.184-1.217-0.277-1.947-0.277-1.734 0-3.058 0.541-3.972 1.621s-1.416 2.779-1.505 5.095h0.133c0.811-1.269 2.095-1.903 3.85-1.903 1.453 0 2.598 0.439 3.435 1.317s1.256 2.069 1.256 3.574c0 1.682-0.459 3.004-1.377 3.967s-2.159 1.444-3.723 1.444c-1.675 0-3.002-0.629-3.983-1.887s-1.472-3.008-1.472-5.25v0zM12.241 18.755c1.047 0 1.861-0.33 2.44-0.99s0.868-1.613 0.868-2.86c0-1.069-0.269-1.91-0.808-2.523s-1.342-0.918-2.412-0.918c-0.664 0-1.272 0.137-1.826 0.41s-0.994 0.649-1.322 1.129c-0.328 0.479-0.492 0.977-0.492 1.494 0 0.76 0.148 1.468 0.442 2.124s0.714 1.177 1.256 1.56c0.542 0.384 1.16 0.575 1.853 0.575v0z"></path>
<path fill="#444" d="M23.958 23.872h-23.745v-23.745h23.745v23.745zM0.979 23.106h22.213v-22.213h-22.213v22.213z"></path>
</svg>
